X:1
T:Title
%%score { ( 1 4 ) | ( 2 3 ) }
L:1/8
Q:1/4=95
M:6/8
K:Eb
V:1 treble nm="Grand Piano"
V:4 treble 
V:2 bass 
V:3 bass 
V:1
 [B,GB]3 [C_G=A][=GB][_Ac] | [GB]2 G E2 F | G3 c2 c | B6 | [FA]3 [DF][EG][FA] | %5
w: Geo.~C.~Stebbins * * *|||||
 [GB]2 [FA] [EG]2 [Ge] | d3 c2 c | [DB]6 | B3 =ABc | B2 G E2 F | G3 [Ge]2 [Ge] | d6 | c3 edc | %13
w: ||||||||
 B2 [_DEB] [CEB]2 [CEA] | [B,EG]3 [DA]2 [DF] | E6 | [DF]3 [FA][EG][DF] | [EG]3 .[GB]3 | %18
w: |||||
 [F=A]2 [Ec] [Ge]dc | B6 | B3 GA[EGB] | [Ge]2 [_DEB] .[CEB]3 | [B,EG]3 [DA]2 [DF] | E6 |] %24
w: ||||||
V:2
 E,3 z B,[E,E] | [E,E]2 [E,B,E] [E,G,B,]2 [E,A,B,] | [E,B,E]3 [E,A,E]2 [E,A,E] | [E,G,E]6 | %4
 [B,,B,]3 [B,,B,]2 [B,,B,] | [E,B,]2 [E,B,] [E,B,]2 [E,B,] | [F,B,F]3 [F,=A,E]2 [F,A,E] | B,3 z3 | %8
 [E,G,E]3 [E,E]-[E,=G,E][E,A,E] | [E,G,E]2 [E,B,E] [E,G,B,]2 [E,A,B,] | [E,B,E]3 [C,C]2 [C,C] | %11
 [G,=B,F]6 | [A,CE]3 [A,A]-[A,B,A][A,E] | [E,G,E]2 G,, A,,2 A,, | B,,3 [B,,F,]2 [B,,A,] | [E,G,]6 | %16
 [B,,B,]3 [B,,B,]2 [B,,B,] | [E,B,]3 .[E,E]3 | [F,C]2 [F,=A,] z F[F,E] | .F,3 z3 | [E,G,E]3 EFE, | %21
 [E,B,]2 G,, z2 A | B,,3 [B,,F,]2 [B,,A,] | [E,G,]6 |] %24
V:3
 z3 .E,3 | x6 | x6 | x6 | x6 | x6 | x6 | B,,6 | z3 ._G,3 | x6 | x6 | x6 | z3 .C3 | x6 | x6 | x6 | %16
 x6 | x6 | z3 .[F,=A,]3 | B,,2- [B,,-G,] [B,,A,]3 | z3 .[E,B,]3 | z3 A,,3 | x6 | x6 |] %24
V:4
 x6 | x6 | x6 | x6 | x6 | x6 | x6 | z3 .A,3 | x6 | x6 | x6 | x6 | x6 | x6 | x6 | x6 | x6 | x6 | %18
 x6 | D2 E .F3 | x6 | x6 | x6 | x6 |] %24

